dist/svg/u1F69D.svg

<?xml version="1.0" encoding="UTF-8"?><svg id="Layer_1" xmlns="http://www.w3.org/2000/svg" viewBox="0 0 40 40"><g style="opacity:0;"><rect width="40" height="40" style="fill:none;"/></g><path d="M4.43569,30.59527v2.83545h2.67462c1.5657,0,2.83496,1.26925,2.83496,2.83496h5.76776c0-1.5657,1.26925-2.83496,2.83496-2.83496h1.7754c1.5657,0,2.83496,1.26925,2.83496,2.83496h5.76776c0-1.5657,1.26925-2.83496,2.83496-2.83496h2.67462v-2.83545H4.43569Z" style="fill:#6b7683;"/><g><path d="M30.55997,30.59516H4.43257v-11.69092h28.0379l2.41963,4.19092c1.9245,3.33333-.48112,7.5-4.33013,7.5Z" style="fill:#cbcfd2;"/><path d="M25.15867,6.23433l7.31493,12.66991H4.4357V5.73432c0-1.10457,.89543-2,2-2h14.39284c1.78633,0,3.43697,.953,4.33013,2.50001Z" style="fill:#cbcfd2;"/><path d="M25.65969,7.10212l6.81391,11.80212h-9.54329c-1.10457,0-2-.89543-2-2V8.65811c0-.85935,.69664-1.55599,1.55599-1.55599h3.17339Z" style="fill:#313d4c;"/><path d="M33.26559,23.18598h1.67218c.42523,.77051,.62231,1.58154,.62653,2.375h-2.29871c-.65576,0-1.1875-.53125-1.1875-1.1875,0-.65625,.53174-1.1875,1.1875-1.1875Z" style="fill:#fff;"/><path d="M4.43257,7.10212h12.05288c1.10383,0,2,.89617,2,2v7.80212c0,1.10383-.89617,2-2,2H4.43257V7.10212h0Z" style="fill:#313d4c;"/></g></svg>

<svg id="Layer_1" data-name="Layer 1" xmlns="http://www.w3.org/2000/svg" viewBox="0 0 40 40"><defs><style>.cls-1{fill:none;opacity:0;}.cls-2{fill:#6b7683;}.cls-3{fill:#cbcfd2;}.cls-4{fill:#313d4c;}.cls-5{fill:#fff;}</style></defs><rect class="cls-1" width="40" height="40"/><path class="cls-2" d="M4.436,30.6v2.836H7.11a2.835,2.835,0,0,1,2.835,2.835h5.768a2.835,2.835,0,0,1,2.835-2.835h1.775a2.835,2.835,0,0,1,2.835,2.835h5.768a2.835,2.835,0,0,1,2.835-2.835h2.675V30.6Z"/><path class="cls-3" d="M30.56,30.6H4.433V18.9H32.47L34.89,23.1A5,5,0,0,1,30.56,30.6Z"/><path class="cls-3" d="M25.159,6.234,32.474,18.9H4.436V5.734a2,2,0,0,1,2-2H20.829A5,5,0,0,1,25.159,6.234Z"/><path class="cls-4" d="M25.66,7.1l6.814,11.8H22.93a2,2,0,0,1-2-2V8.658A1.556,1.556,0,0,1,22.486,7.1Z"/><path class="cls-5" d="M33.266,23.186h1.672a4.944,4.944,0,0,1,.626,2.375h-2.3a1.188,1.188,0,1,1,0-2.375Z"/><path class="cls-4" d="M4.433,7.1H16.485a2,2,0,0,1,2,2v7.8a2,2,0,0,1-2,2H4.433a0,0,0,0,1,0,0V7.1A0,0,0,0,1,4.433,7.1Z"/></svg>
